!!!CDT:
!!!PTL: L'ottavo libro de madrigali a cinque voci
!!!PPP: Venice
!!!PPR: Amadino
!!!PDT: 1612
!!!PUB-format:
!!!RISM: P 801
!!!rime: 23
!!!AGN: Madrigal
!!!SCT: Trm0023e
!!!SCA: Trm0023e
!!!original-voices: 5
!!!extant-voices: 5
!!!complete: Y
!!!final: G
!!!COM: Pallavicino, Benedetto
!!!OTL: Io non posso gioire
**kern	**text	**kern	**text	**kern	**text	**kern	**text	**kern	**text
*part5	*part5	*part4	*part4	*part3	*part3	*part2	*part2	*part1	*part1
*staff5	*staff5	*staff4	*staff4	*staff3	*staff3	*staff2	*staff2	*staff1	*staff1
*I"Basso	*	*I"Tenore	*	*I"Alto	*	*I"Quinto	*	*I"Canto	*
*I'B	*	*I'T	*	*I'A	*	*I'V	*	*I'C	*
*oclefC4	*	*oclefC3	*	*oclefC2	*	*oclefG2	*	*oclefG2	*
*clefGv2	*	*clefGv2	*	*clefG2	*	*clefG2	*	*clefG2	*
*k[]	*	*k[]	*	*k[]	*	*k[]	*	*k[]	*
*C:	*	*C:	*	*C:	*	*C:	*	*C:	*
*omet(C)	*	*omet(C)	*	*omet(C)	*	*omet(C)	*	*omet(C)	*
*M4/2	*	*M4/2	*	*M4/2	*	*M4/2	*	*M4/2	*
=1	=1	=1	=1	=1	=1	=1	=1	=1	=1
0r	.	2g	Io	2b	Io	2gg	Io	2dd	Io
.	.	4c	non	4cc	non	4gg	non	4ee	non
.	.	4.f	pos-	4.a	pos-	4.ff	pos-	4.cc	pos-
.	.	8f	-so	8a	-so	8ff	-so	8cc	-so
.	.	4g	gio-	4g	gio-	4dd	gio-	4b	gio-
.	.	2d	-i-	2f#X	-i-	2dd	-i-	2a	-i-
=2	=2	=2	=2	=2	=2	=2	=2	=2	=2
2r	.	2d	-re	2f#i	-re,	2dd	-re,	2a	-re,
2d	Io	2r	.	4r	.	4r	.	4r	.
.	.	.	.	4f#X	<Io	4a	<Io	4dd	<Io
4G	non	1r	.	4g	non	4b	non	4dd	non
4.c	pos-	.	.	4.g	pos-	4.cc	pos-	4.ee	pos-
8c	-so	.	.	8g	-so	8cc	-so	8ee	-so
4d	gio-	.	.	4fnXi	gio-	4a	gio-	4dd	gio-
=3	=3	=3	=3	=3	=3	=3	=3	=3	=3
0A	-i-	0r	.	2e	-i-	2a	-i-	2cc#X	-i-
.	.	.	.	2e	-re>	2a	-re>	2cc#i	-re>
.	.	.	.	4c	Lun-	2r	.	4a	Lun-
.	.	.	.	8c	-ge	.	.	8a	-ge
.	.	.	.	8c	da	.	.	8a	da
.	.	.	.	[2cc	voi,	4a	Lun-	4.aa	voi,
.	.	.	.	.	.	8a	-ge	.	.
.	.	.	.	.	.	8a	da	8ee	che
=4	=4	=4	=4	=4	=4	=4	=4	=4	=4
1A	-re,	1r	.	4cc]	.	4.aa	voi,	4ff	se-
.	.	.	.	4a	che	.	.	4ccnXi	-te il
.	.	.	.	.	.	8ee	che	.	.
.	.	.	.	4.a	se-	4ff	se-	4dd	mio
.	.	.	.	.	.	4cc	-te il	2ee	de-
.	.	.	.	8a	-te il	.	.	.	.
1r	.	2r	.	4a	mio	4cc	mio	.	.
.	.	.	.	4f	de-	4dd	de-	2dd	-si-
.	.	4A	Lun-	2e	-si-	2ee	-si-	.	.
.	.	8A	-ge	.	.	.	.	4cc#X	.
.	.	8A	da	.	.	.	.	.	.
=5	=5	=5	=5	=5	=5	=5	=5	=5	=5
0r	.	2.a	voi,	2d	-re,	4ff	-re,	4dd	-re,
.	.	.	.	.	.	4aa	da	4ff	da
.	.	.	.	4r	.	4aa	voi,	4.ee	voi,
.	.	4e	che	4g	che	4gg	che	.	.
.	.	.	.	.	.	.	.	8dd	che
.	.	4.f	se-	4.a	se-	4.ff	se-	4ccnXi	se-
.	.	.	.	.	.	.	.	4cc	-te il
.	.	8c	-te il	8g	-te il	8ee	-te il	.	.
.	.	4d	mio	4f	mio	4dd	mio	4a	mio
.	.	4e	de-	4e	de-	4cc#X	de-	4g	de-
=6	=6	=6	=6	=6	=6	=6	=6	=6	=6
1r	.	1d	-si-	4f#X	-si-	1dd	-si-	1a	-si-
.	.	.	.	2g	.	.	.	.	.
.	.	.	.	4f#X	.	.	.	.	.
2r	.	2G	-re,	2g	-re,	2dd	-re,	2b	-re,
2G	<Io	4r	.	4r	.	4r	.	4r	.
.	.	4d	Io	4b	Io	4dd	Io	4gg	Io
=7	=7	=7	=7	=7	=7	=7	=7	=7	=7
4C	non	4c	non	4cc	non	4ee	non	4gg	non
4.F	pos-	4.c	pos-	4.a	pos-	4.cc	pos-	4.ff	pos-
8F	-so	8c	-so	8a	-so	8cc	-so	8ff	-so
4G	gio-	4G	gio-	4g	gio-	4b	gio-	4dd	gio-
2D	-i-	2A	-i-	2f#X	-i-	2a	-i-	2dd	-i-
2D	-re>	2A	-re	2f#i	-re	2a	-re	2dd	-re
=8	=8	=8	=8	=8	=8	=8	=8	=8	=8
1r	.	4c	Lun-	2r	.	2r	.	4g	Lun-
.	.	8c	-ge	.	.	.	.	8g	-ge
.	.	8c	da	.	.	.	.	8g	da
.	.	2e	voi,	4b	Lun-	4g	Lun-	4.gg	voi,
.	.	.	.	8b	-ge	8g	-ge	.	.
.	.	.	.	8b	da	8g	da	8ff	che
4C	Lun-	4c	Lun-	2.cc	voi,	2.gg	voi,	2.ee	se-
8C	-ge	8c	-ge	.	.	.	.	.	.
8C	da	8c	da	.	.	.	.	.	.
4c	voi,	4g	voi,	.	.	.	.	.	.
4G	che	4g	che	4b	che	4gg	che	4dd	-te il
=9	=9	=9	=9	=9	=9	=9	=9	=9	=9
4.A	se-	4.c	se-	4.a	se-	4.ee	se-	4cc	mio
.	.	.	.	.	.	.	.	4cc	de-
8E	-te il	8c	-te il	8g	-te il	8ee	-te il	.	.
4F	mio	4c	mio	4f	mio	4cc	mio	8aL	-si-
.	.	.	.	.	.	.	.	8b	.
4A	de-	4A	de-	4e	de-	4cc	de-	8cc	.
.	.	.	.	.	.	.	.	8aJ	.
1G	-si-	1d	-si-	1g	-si-	1dd	-si-	4b	.
.	.	.	.	.	.	.	.	2cc	.
.	.	.	.	.	.	.	.	4b	.
=10	=10	=10	=10	=10	=10	=10	=10	=10	=10
2C	-re;	2c	-re;	1g	-re;	1ee	-re;	1cc	-re;
4r	.	4r	.	.	.	.	.	.	.
4c	Ma'l	4e	Ma'l	.	.	.	.	.	.
4B	mio	4d	mio	2r	.	1r	.	1r	.
4A	pen-	4c	pen-	.	.	.	.	.	.
[2c	-sier	[2e	-sier	4r	.	.	.	.	.
.	.	.	.	4cc	Ma'l	.	.	.	.
=11	=11	=11	=11	=11	=11	=11	=11	=11	=11
2c]	.	2e]	.	4a	mio	0r	.	0r	.
.	.	.	.	4g	pen-	.	.	.	.
2F	fal-	2A	fal-	1cc	-sier	.	.	.	.
1e	-la-	2.g	-la-	.	.	.	.	.	.
.	.	.	.	2c	fal-	.	.	.	.
.	.	4a	.	.	.	.	.	.	.
=12	=12	=12	=12	=12	=12	=12	=12	=12	=12
0d	-ce	2f#X	.	2.b	-la-	0r	.	0r	.
.	.	1g	.	.	.	.	.	.	.
.	.	.	.	4cc	.	.	.	.	.
.	.	.	.	1a	.	.	.	.	.
.	.	2f#X	.	.	.	.	.	.	.
=13	=13	=13	=13	=13	=13	=13	=13	=13	=13
0r	.	2g	-ce,	1g	-ce	4r	.	2r	.
.	.	.	.	.	.	4dd	Ma'l	.	.
.	.	4r	.	.	.	4b	mio	4r	.
.	.	4g	Ma'l	.	.	4g	pen-	4b	Ma'l
.	.	4fnXi	mio	1r	.	2cc	-sier,	4a	mio
.	.	4e	pen-	.	.	.	.	4g	pen-
.	.	[2g	-sier	.	.	4r	.	[2b	-sier
.	.	.	.	.	.	4gg	<Ma'l	.	.
=14	=14	=14	=14	=14	=14	=14	=14	=14	=14
0r	.	2g]	.	0r	.	4ee	mio	2b]	.
.	.	.	.	.	.	4dd	pen-	.	.
.	.	2c	fal-	.	.	1gg	-sier>	2e	fal-
.	.	[1a	-la-	.	.	.	.	2.ee	-la-
.	.	.	.	.	.	2a	fal-	.	.
.	.	.	.	.	.	.	.	4cc	.
=15	=15	=15	=15	=15	=15	=15	=15	=15	=15
0r	.	1a]	.	0r	.	2.cc	-la-	2.ff	.
.	.	.	.	.	.	4dd	.	4gg	.
.	.	[1g	-ce	.	.	2b	.	2ee	.
.	.	.	.	.	.	[2cc	.	4dd	.
.	.	.	.	.	.	.	.	4cc	.
=16	=16	=16	=16	=16	=16	=16	=16	=16	=16
1r	.	0g]	.	1r	.	2cc]	.	2dd	.
.	.	.	.	.	.	2b	.	2dd	-ce
4c	Pas-	.	.	4e	Pas-	1cc	-ce	2r	.
4d	-sa	.	.	4f	-sa	.	.	.	.
4e	mon-	.	.	4g	mon-	.	.	[2gg	Pas-
8e	-ti,	.	.	8g	-ti,	.	.	.	.
8f	cam-	.	.	8a	cam-	.	.	.	.
=17	=17	=17	=17	=17	=17	=17	=17	=17	=17
4g	-pa-	2r	.	4b	-pa-	1r	.	2gg]	.
4f	-gn'e	.	.	4a	-gn'e	.	.	.	.
4e	ma-	4c	Pas-	4g	ma-	.	.	2gg	-sa
4d	-r'e	4d	-sa	4f	-r'e	.	.	.	.
4c	fiu-	4e	mon-	4e	fiu-	4g	Pas-	[1gg	mon-
8BL	.	8e	-ti,	8dL	.	4a	-sa	.	.
8AJ	.	8f	cam-	8cJ	.	.	.	.	.
8GL	.	4.g	-pa-	8BL	.	4b	mon-	.	.
8F	.	.	.	8AJ	.	.	.	.	.
8E	.	.	.	4G	.	8cc	-ti,	.	.
8DJ	.	8f	-gn'e	.	.	8dd	cam-	.	.
=18	=18	=18	=18	=18	=18	=18	=18	=18	=18
1C	.	4e	ma-	2c	-mi,	4ee	-pa-	1gg]	.
.	.	4d	-r'e	.	.	4ff	-gn'e	.	.
.	.	4c	fiu-	4c	Pas-	4gg	ma-	.	.
.	.	8BL	.	4d	-sa	4ff	-r'e	.	.
.	.	8AJ	.	.	.	.	.	.	.
[1C	-mi,	8GL	.	4e	mon-	2.ee	fiu-	2gg	-ti,
.	.	8F	.	.	.	.	.	.	.
.	.	8E	.	8e	-ti,	.	.	.	.
.	.	8DJ	.	8f	cam-	.	.	.	.
.	.	4E	.	4g	-pa-	.	.	4cc	Pas-
.	.	4F	.	4f	-gn'e	4dd	.	4dd	-sa
=19	=19	=19	=19	=19	=19	=19	=19	=19	=19
0C]	.	2G	.	4e	ma-	4cc	.	4ee	mon-
.	.	.	.	4c	-r'e	8bL	.	8ee	-ti,
.	.	.	.	.	.	8aJ	.	8ff	cam-
.	.	2G	-mi,	8cL	fiu-	8gL	.	4.gg	-pa-
.	.	.	.	8d	.	8f	.	.	.
.	.	.	.	8e	.	8e	.	.	.
.	.	.	.	8fJ	.	8dJ	.	8ff	-gn'e
.	.	2r	.	2g	.	2c	.	4ee	ma-
.	.	.	.	.	.	.	.	4dd	-r'e
.	.	4G	Pas-	2e	-mi,	2g	-mi,	4cc	fiu-
.	.	4A	-sa	.	.	.	.	8bL	.
.	.	.	.	.	.	.	.	8aJ	.
=20	=20	=20	=20	=20	=20	=20	=20	=20	=20
2r	.	4B	mon-	1r	.	2r	.	8gL	.
.	.	.	.	.	.	.	.	8f	.
.	.	8c	-ti,	.	.	.	.	8e	.
.	.	8d	cam-	.	.	.	.	8dJ	.
4A	Pas-	4e	-pa-	.	.	4cc	Pas-	2c	.
4B	-sa	4g	-gn'e	.	.	4dd	-sa	.	.
4c	mon-	8gL	ma-	2r	.	4ee	mon-	1g	-mi,
.	.	8f	.	.	.	.	.	.	.
8c	-ti,	8e	.	.	.	8ee	-ti,	.	.
8d	cam-	8dJ	.	.	.	8ff	cam-	.	.
4e	-pa-	4c	.	[2g	cam-	4gg	-pa-	.	.
4d	-gn'e	4d	-r'e	.	.	4ff	-gn'e	.	.
=21	=21	=21	=21	=21	=21	=21	=21	=21	=21
4c	ma-	1e	fiu-	2g]	.	4ee	ma-	4cc	Pas-
4B	-r'e	.	.	.	.	4dd	-r'e	4dd	-sa
4A	fiu-	.	.	1cc	-pa-	4cc	fiu-	4ee	mon-
8GL	.	.	.	.	.	8bL	.	8ee	-ti,
8FJ	.	.	.	.	.	8aJ	.	8ff	cam-
4.E	.	1e	-mi,	.	.	8gL	.	4.gg	-pa-
.	.	.	.	.	.	8f	.	.	.
.	.	.	.	.	.	8e	.	.	.
8D	.	.	.	.	.	8fJ	.	8ff	-gn'e
8CL	.	.	.	2cc	-gn'e	4.g	.	4ee	ma-
8D	.	.	.	.	.	.	.	.	.
8E	.	.	.	.	.	.	.	4ee	-r'e
8FJ	.	.	.	.	.	8a	.	.	.
=22	=22	=22	=22	=22	=22	=22	=22	=22	=22
8GL	.	4r	.	2.g	ma-	8bL	.	2.dd	fiu-
8A	.	.	.	.	.	8a	.	.	.
8B	.	4G	e	.	.	8g	.	.	.
8cJ	.	.	.	.	.	8aJ	.	.	.
2d	.	8GL	ma-	.	.	8bL	.	.	.
.	.	8A	.	.	.	8cc	.	.	.
.	.	8B	.	4d	-r'e	8dd	.	8ccL	.
.	.	8cJ	.	.	.	8eeJ	.	8bJ	.
1D	-mi;	4d	.	1d	fiu-	4ff#X	.	4a	.
.	.	4B	-r'e	.	.	2gg	.	4g	.
.	.	2A	fiu-	.	.	.	.	2a	.
.	.	.	.	.	.	4ff#X	.	.	.
=23	=23	=23	=23	=23	=23	=23	=23	=23	=23
0r	.	1G	-mi;	1d	-mi;	1gg	-mi;	1b	-mi;
.	.	2r	.	2r	.	2r	.	2r	.
.	.	[2g	E	[2b	E	[2dd	E	[2gg	E
=24	=24	=24	=24	=24	=24	=24	=24	=24	=24
0r	.	4g]	.	4b]	.	4dd]	.	4gg]	.
.	.	2c	m'a-	2g	m'a-	2cc	m'a-	2ee	m'a-
.	.	4c	-vi-	4g	-vi-	4cc	-vi-	4ee	-vi-
.	.	2c	-ci-	2g	-ci-	2cc	-ci-	2ee	-ci-
.	.	2e	-na e	2g	-na e	2b	-na e	2ee	-na e
=25	=25	=25	=25	=25	=25	=25	=25	=25	=25
0r	.	1B	sfa-	1f#X	sfa-	1b	sfa-	1dd#X	sfa-
.	.	2B	-ce	2f#i	-ce	2b	-ce	2dd#i	-ce
.	.	4r	.	4r	.	4r	.	4r	.
.	.	4e	Al	4g#X	Al	4b	Al	4ee	Al
=26	=26	=26	=26	=26	=26	=26	=26	=26	=26
0r	.	4e	dol-	4g#i	dol-	4b	dol-	4ee	dol-
.	.	4a	-ce	4a	-ce	4cc#X	-ce	4ff#X	-ce
.	.	4.g	fo-	4.b	fo-	4.dd	fo-	4.gg	fo-
.	.	8g	-co	8b	-co	8dd	-co	8gg	-co
.	.	4g	de'	4b	de'	4dd	de'	4gg	de'
.	.	4d	bei	4a	bei	4ff	bei	2aa	bei
.	.	4a	vo-	[2cc	vo-	4ee	vo-	.	.
.	.	4e	-stri	.	.	4ee	-stri	[4gg	vo-
=27	=27	=27	=27	=27	=27	=27	=27	=27	=27
1r	.	1g	lu-	4cc]	.	2dd	lu-	4gg]	.
.	.	.	.	4b	-stri	.	.	4dd	-stri
.	.	.	.	2b	lu-	2g	-mi,	2dd	lu-
2r	.	1c	-mi,	2cc	-mi,	2r	.	[1cc	-mi,
[2c	E	.	.	4r	.	4r	.	.	.
.	.	.	.	[4gnXi	E	[4ee	E	.	.
=28	=28	=28	=28	=28	=28	=28	=28	=28	=28
4c]	.	4r	.	4g]	.	4ee]	.	1cc]	.
2F	m'a-	4c	E	2f	m'a-	2a	m'a-	.	.
.	.	4A	m'a-	.	.	.	.	.	.
4F	-vi-	4A	-vi-	4f	-vi-	4a	-vi-	.	.
2F	-ci-	2c	-ci-	2f	-ci-	2a	-ci-	1r	.
2A	-na e	2c	-na e	2e	-na e	2a	-na e	.	.
=29	=29	=29	=29	=29	=29	=29	=29	=29	=29
1E	sfa-	1B	sfa-	1e	sfa-	1g#X	sfa-	2r	.
.	.	.	.	.	.	.	.	4r	.
.	.	.	.	.	.	.	.	4ee	Al
2E	-ce	2B	-ce	2e	-ce	2g#i	-ce	4ee	dol-
.	.	.	.	.	.	.	.	4b	-ce
4r	.	2r	.	4r	.	4r	.	4.cc#X	fo-
4A	Al	.	.	4a	Al	4ee	Al	.	.
.	.	.	.	.	.	.	.	8dd	.
=30	=30	=30	=30	=30	=30	=30	=30	=30	=30
4A	dol-	1r	.	4a	dol-	4ee	dol-	8eeL	.
.	.	.	.	.	.	.	.	8ccnXiJ	.
4d	-ce	.	.	4a	-ce	4ff#X	-ce	4dd	.
2c	fo-	.	.	2cc	fo-	2ggnXi	fo-	2ee	-co,
4c	-co	4r	.	4g	-co	4ee	-co	4r	.
2c	de'	4A	Al	2cc	de'	2ee	de'	4a	<Al
.	.	4A	dol-	.	.	.	.	4a	dol-
4G	bei	4d	-ce	4b	bei	4gg	bei	4b	-ce
=31	=31	=31	=31	=31	=31	=31	=31	=31	=31
2A	vo-	4.c	fo-	2a	vo-	8eeL	vo-	4.cc	fo-
.	.	.	.	.	.	8dd	.	.	.
.	.	.	.	.	.	8ee	.	.	.
.	.	8c	-co	.	.	8ffnXiJ	.	8dd	-co>
2E	-stri	4c	de'	2g	-stri	2.gg	.	4ee	de'
.	.	4e	bei	.	.	.	.	4cc	bei
1G	lu-	4d	vo-	1g	lu-	.	.	4.b	vo-
.	.	4d	-stri	.	.	4dd	-stri	.	.
.	.	.	.	.	.	.	.	8cc	-stri
.	.	2G	lu-	.	.	2dd	lu-	2b	lu-
=32	=32	=32	=32	=32	=32	=32	=32	=32	=32
1C	-mi;	1G	-mi;	1e	-mi;	1ee	-mi;	1cc	-mi;
1r	.	2r	.	1r	.	2r	.	1r	.
.	.	[2g	E'l	.	.	2b	E'l	.	.
=33	=33	=33	=33	=33	=33	=33	=33	=33	=33
0r	.	2g]	.	1r	.	2a	lan-	1r	.
.	.	2f#X	lan-	.	.	2dd	-guir	.	.
.	.	2a	-guir	2r	.	4.cc#X	sì	2r	.
.	.	.	.	.	.	8dd	.	.	.
.	.	4e	sì	[2g	E'l	4ee	.	2b	E'l
.	.	4B	mi	.	.	4dd	mi	.	.
=34	=34	=34	=34	=34	=34	=34	=34	=34	=34
0r	.	2d	pia-	2g]	.	2dd	pia-	2a	lan-
.	.	2d	-ce,	2f#X	lan-	2dd	-ce,	2dd	-guir
.	.	1r	.	2a	-guir	2r	.	4.cc#X	sì
.	.	.	.	.	.	.	.	8dd	.
.	.	.	.	4e	sì	[2g	<E'l	4ee	.
.	.	.	.	4B	mi	.	.	4dd	mi
=35	=35	=35	=35	=35	=35	=35	=35	=35	=35
1r	.	1r	.	[0d	pia-	2g]	.	2dd	pia-
.	.	.	.	.	.	2f#X	lan-	2a	-ce,
[1G	E'l	2r	.	.	.	2b	-guir	1r	.
.	.	2B	E'l	.	.	4a	sì	.	.
.	.	.	.	.	.	4g	mi	.	.
=36	=36	=36	=36	=36	=36	=36	=36	=36	=36
2G]	.	2A	lan-	1d]	.	2a	pia-	1r	.
2F#X	lan-	2d	-guir	.	.	2a	-ce,>	.	.
2A	-guir	4.c#X	sì	2e	-ce,	2r	.	2r	.
.	.	8d	.	.	.	.	.	.	.
4E	sì	4e	.	2r	.	4b	Ch'in-	4gg	Ch'in-
4BB	mi	4d	mi	.	.	4b	-fi-	4gg	-fi-
=37	=37	=37	=37	=37	=37	=37	=37	=37	=37
2D	pia-	0d	pia-	0r	.	2b	-ni-	2gg	-ni-
2D	-ce,	.	.	.	.	4a	-to	4ff	-to
.	.	.	.	.	.	4g	di-	4ee	di-
2r	.	.	.	.	.	4f#X	-let-	4dd	-let-
.	.	.	.	.	.	4g	-t'ho	4ee	-t'ho
[2d	<E'l	.	.	.	.	4a	nel	4ff#X	nel
.	.	.	.	.	.	4b-X	mar-	4gg	mar-
=38	=38	=38	=38	=38	=38	=38	=38	=38	=38
2d]	.	2A	-ce,	2f	<E'l	2a	-ti-	2aa	-ti-
2c#X	lan-	4a	Ch'in-	2e	lan-	2a	-re,	2aa	-re,
.	.	4a	-fi-	.	.	.	.	.	.
2d	-guir	2a	-ni-	2f	-guir	1r	.	2r	.
4B-X	sì	4g	-to	4b-X	sì	.	.	4dd	<Ch'in-
4F	mi	4f	di-	4a	mi	.	.	4dd	-fi-
=39	=39	=39	=39	=39	=39	=39	=39	=39	=39
1A	pia-	2.e	-let-	1a	pia-	1r	.	2dd	-ni-
.	.	.	.	.	.	.	.	4cc	-to
.	.	4d	-t'ho	.	.	.	.	4b	di-
1A	-ce,>	2c#X	nel	1e	-ce,>	4aa	Ch'in-	2.a	-let-
.	.	.	.	.	.	4aa	-fi-	.	.
.	.	2d	mar-	.	.	2aa	-ni-	.	.
.	.	.	.	.	.	.	.	4b	-t'ho
=40	=40	=40	=40	=40	=40	=40	=40	=40	=40
1r	.	4e	-ti-	0r	.	4gg	-to	4cc#X	nel
.	.	2d	.	.	.	4ff	di-	4dd	mar-
.	.	.	.	.	.	2ee	-let-	2a	-ti-
.	.	4c#X	.	.	.	.	.	.	.
2r	.	2d	-re,	.	.	1dd	-to,	[1a	-re,>
4d	Ch'in-	4f	<Ch'in-	.	.	.	.	.	.
4d	-fi-	4f	-fi-	.	.	.	.	.	.
=41	=41	=41	=41	=41	=41	=41	=41	=41	=41
2d	-ni-	2f	-ni-	1r	.	1r	.	0a]	.
4c	-to	4e	-to	.	.	.	.	.	.
4B	di-	4d	di-	.	.	.	.	.	.
4A	-let-	4cnXi	-let-	2r	.	2r	.	.	.
4B	-t'ho	4d	-t'ho	.	.	.	.	.	.
4c	nel	4e	nel	4a	Ch'in-	4cc	Ch'in-	.	.
4d	mar-	4f	mar-	4a	-fi-	4cc	-fi-	.	.
=42	=42	=42	=42	=42	=42	=42	=42	=42	=42
1e	-ti-	1.c	-ti-	2a	-ni-	2cc	-ni-	1r	.
.	.	.	.	4g	-to	4b	-to	.	.
.	.	.	.	4f	di-	4a	di-	.	.
1E	-re,	.	.	4e	-let-	4g	-let-	2r	.
.	.	.	.	4f	-t'ho	4a	-t'ho	.	.
.	.	2B	-re,>	4g	nel	4b	nel	[2gg	E'l
.	.	.	.	4a	mar-	4cc	mar-	.	.
=43	=43	=43	=43	=43	=43	=43	=43	=43	=43
0r	.	0r	.	4.b	-ti-	4.dd	-ti-	2gg]	.
.	.	.	.	8cc	.	8ee	.	.	.
.	.	.	.	2a	.	4.cc	.	2ff#X	lan-
.	.	.	.	.	.	8dd	.	.	.
.	.	.	.	[1g	-re,	2b	.	2gg	-guir
.	.	.	.	.	.	[2cc	.	4ee	sì
.	.	.	.	.	.	.	.	4cc	mi
=44	=44	=44	=44	=44	=44	=44	=44	=44	=44
1r	.	1r	.	1g]	.	2cc]	.	1dd	pia-
.	.	.	.	.	.	2b	.	.	.
4c	Ch'in-	4e	<Ch'in-	2r	.	2cc	-re,	1g	-ce,
4c	-fi-	4e	-fi-	.	.	.	.	.	.
2c	-ni-	2e	-ni-	4r	.	4r	.	.	.
.	.	.	.	4g	ho	[4gg	E'l	.	.
=45	=45	=45	=45	=45	=45	=45	=45	=45	=45
4B	-to	4d	-to	4b	nel	4gg]	.	1r	.
4A	di-	4c	di-	4cc	mar-	4ff#X	lan-	.	.
2.G	-let-	4B	-let-	2dd	-ti-	2gg	-guir	.	.
.	.	4G	-t'ho	.	.	.	.	.	.
.	.	4B	nel	2g	-re,	4ee	sì	2r	.
4A	-t'ho	4c	mar-	.	.	4ee	mi	.	.
4B	nel	2d	-ti-	4g	Ch'in-	2dd	pia-	4b	Ch'in-
4c	mar-	.	.	4g	-fi-	.	.	4b	-fi-
=46	=46	=46	=46	=46	=46	=46	=46	=46	=46
1d	-ti-	1D	-re,>	2g	-ni-	2dd	-ce,	2b	-ni-
.	.	.	.	4f	-to	4dd	Ch'in-	4a	-to
.	.	.	.	4e	di-	4dd	-fi-	4g	di-
1d	-re,	2r	.	4d	-let-	2dd	-ni-	4f#X	-let-
.	.	.	.	4e	-t'ho	.	.	4g	-t'ho
.	.	4r	.	4f#X	nel	4cc	-to	4a	nel
.	.	4G	ho	4g	mar-	4b	di-	4d	mar-
=47	=47	=47	=47	=47	=47	=47	=47	=47	=47
4r	.	2F#X	nel	2a	-ti-	4a	-let-	0dd	-ti-
4D	ho	.	.	.	.	4a	-t'ho	.	.
4BB	nel	2d	mar-	1g	.	4b	nel	.	.
4C	mar-	.	.	.	.	4b	mar-	.	.
1D	-ti-	1d	-ti-	.	.	1a	-ti-	.	.
.	.	.	.	2f#X	.	.	.	.	.
=48	=48	=48	=48	=48	=48	=48	=48	=48	=48
0Gl	-re.	0dl	-re.	0gl	-re.	0bl	-re.	0ddl	-re.
==	==	==	==	==	==	==	==	==	==
*-	*-	*-	*-	*-	*-	*-	*-	*-	*-
!!!system-decoration: [*]
!!!RDF**kern: i = editorial accidental
!!!RDF**kern: l = terminal long
!!!ENC: Emiliano Ricciardi
!!!END: 2019/08/08
!!!EED: Ricciardi, Emiliano
!!!EEV: 2019/08/08
!!!YEC: Copyright 2018 Emiliano Ricciardi, All Rights Reserved
!!!ONB: Translated from MusicXML on 2019/08/08 and edited by Craig Stuart Sapp
!!@@BEGIN:	VERSEDATA
!!@SOLERTI:	23
!!@CATALOGNUM:	Trm0023
!!@LAST_MODIFIED: 2020/07/12
!!@TITLE:		Io non posso gioire
!!@GENRE:		madrigale
!!@MANUSRC:	C, V<sub>8</sub>
!!@PRINTSRC:	27, 48, 70, 141, 145, 166, 169
!!@@BEGIN:	VERSES
!!@ABOUTIT:	Ne la lontananza de la sua donna dice di non poter avere alcun piacer lontano da lei se non quello ch'egli sente nel patir di lei.
!!@ABOUTEN:	In the absence of his lady, he says he experiences no pleasure away from her but the one he feels in languishing for her.
!!@EDITOR:	Solerti, Angelo
!!@EDITION_TITLE: Le Rime di Torquato Tasso
!!@EDITION_LOC:	Bologna
!!@EDITION_PUB:	Romagnoli-Dall’Acqua
!!@EDITION_DATE:  1898-1902
!!@EDITION_VOL:	2
!!@EDITION_PAGE:  35
!!@TRANSLATOR:	Maria Pastore Passaro; adapted by Emiliano Ricciardi and Amyrose McCue Gill
!!@TRANSLATION_TITLE: Rhymes of Love
!!@TRANSLATION_LOC: Mineola, NY
!!@TRANSLATION_PUB: Legas
!!@TRANSLATION_DATE: 2011
!!@TRANSLATION_PAGE: 40-41
!!@VERSE:
!!	Io non posso gioire
!!	Lunge da voi, che siete il mio desire;
!!	Ma 'l mio pensier fallace
!!	Passa monti e campagne e mari e fiumi;
!!	E m'avicina e sface
!!	Al dolce foco de' be' vostri lumi;
!!	E 'l languir sì mi piace,
!!	Ch'infinito diletto ho nel martire.
!!@TVERSE:
!!	I cannot feel joy
!!	Far from you, who are my desire;
!!	Yet my erring thought
!!	Crosses mountains and fields and seas and streams;
!!	It draws me close and undoes me
!!	In the sweet fire of your beautiful eyes;
!!	And to languish so pleases me
!!	That I find infinite delight in suffering.
!!@@END:		VERSES
!!@OTHER_CRIT_ED: Torquato Tasso, <i>Rime d’amore (secondo il codice
!!		Chigiano L VIII 302)</i>, eds. Franco Gavazzeni and
!!		Vercingetorige Martignone, vol. 4 of <i>Edizione
!!		Nazionale delle opere di Torquato Tasso</i>
!!		(Alessandria: Edizioni Dell’Orso, 2004), 14.
!!@ATTRIBUTION_ABOUT:	Secure
!!		<br>
!!		This poem appears in the autograph Chigiano
!!		L.VIII.302 (Biblioteca Vaticana, Rome), compiled
!!		around 1584&ndash;85 (see Literary Sources).
!!@DATING:
!!@DEDICATEE:	Bendidio, Lucrezia
!!@COMMENTARY:
!!@@END:		VERSEDATA
!!@@BEGIN:	SETTING
!!@CATALOGNUM:	Trm0023e
!!@RIMETITLE:	Io non posso gioire
!!@SOLERTI:	23
!!@COMPOSER:	Pallavicino, Benedetto
!!@PRINCEPSTITLE:	L'ottavo libro de madrigali a cinque voci
!!@PRINCEPSLOC:	Venetia
!!@NORMLOC:	Venice
!!@NORMPUB:	Amadino
!!@NORMPUBSHORT:	Amadino
!!@PRINCEPSPUB:	Amadino
!!@PRINCEPSYEAR:	1612
!!@PRINCEPSRISM:	P 801
!!@REPRINTS:	
!!@OVOICES:	5
!!@EXTANTVOICES:	5
!!@PARTBOOKS:	
!!@EXTPARTBOOKS:	
!!@OCLEFS:	G2,G2,C2,C3,C4
!!@OMENSURATION:	C
!!@OKEYSIG:	-
!!@FINAL:	G
!!@TIMPEDITOR:	Ricciardi, Emiliano
!!@NOTE:		
!!@@END:		SETTING
